FINK
CUT[KOMM FREUDE SEI GESEGNET]
REG[Europa, Mitteleuropa, Deutschland]
KEY[F0326  08 Bb 4/4]
MEL[1_  5_.34_2_  3_.21_
    3_  2_31-7_-6_  -5__0_
    -5_  2_.43_.5  5_4_2_
    31  -6_421_-7_  12345_
    -5_  -6_421_-7_  1__0_ //] >>
FCT[Jugend - Lied, Belehrung, Freude]
